X: 216
T: Crooked Hornpipe
C: R-116
C: Ralph Page
M: C|
Z: Transcribed to abc by Mary Lou Knack
R: hornpipe
K: D
A2| "D"Aafd "A"Agec| "D"Aafd dcBA| "G"BgAf "Em"GeFd| "A"efge "A7"dcBA|
    "D"Aafd "A"Agec| "D"defd A2dc| "G"Bcde "A7"fa^ga| "D"d2d2 d2 :|
|:\
cd| "A"eAfA gAfA| eAce "A7"dcBA| "G"BbAa "Em"GgFf| "A"efge dcBA|
    "G"Bbge "D"Aafd| "A"Ggec "Bm"d2dc| "Em"Bcde "A7"fABc| "D"d2f2 d2 :|
%%text 9/1/98


